!!!!SEGMENT: pl-wn--mus-iii-118-771--001_badarzewska-tekla--la-priere-d-une-vierge.krn
!!!cenid: 18xx:3540
!!!COM: Bądarzewska, Tekla
!!!COM-rismID: pe30005936
!!!CDT: ~1830-1861/09/29
!!!CNT: Polish
!!!OTL: La prière d'une vièrge
!!!PDT:
!!!AGN:
!!!SMS-siglum: PL-Wn
!!!SMS-shelfmark: Mus.III.118.771
!!!SMS-shelfwork: 001 W
!!!SMS-variant:
!!!SMS-altvar:
!!!NIFC-rismSourceID:
!!!NIFC-islandoraID:
!!!URL-pdf-islandora:
!!!URL-scan: https://polona.pl/item/pieces-favorites,MTk4NjI5Mw/4 @EN{Scan on Polona} @PL{Skany w portalu Polona}
!!!ONB-nifc:
!!!OMD: Andante.
!!!AIN: 1 piano
!!!key: E-
**kern	**kern	**fing	**dynam
*part1	*part1	*part1	*part1
*staff2	*staff1	*staff1	*
*>[A,B,B,C,C1,C,C2,D,D,E,E1,E,E2,F]	*>[A,B,B,C,C1,C,C2,D,D,E,E1,E,E2,F]	*	*>[A,B,B,C,C1,C,C2,D,D,E,E1,E,E2,F]
*>A	*>A	*	*>A
*I"[Piano]	*I"[Piano]	*	*
*mI"Pianoforte	*mI"Pianoforte	*	*
*Ipiano	*Ipiano	*	*
*ICklav	*ICklav	*	*
*clefF4	*clefG2	*	*
*k[b-e-a-]	*k[b-e-a-]	*	*
*E-:	*E-:	*	*
*M4/4	*M4/4	*	*
*met(c)	*met(c)	*	*
=1	=1	=1	=1
4e- 4E-\	4eee- 4ee-\	.	f
(<8qe- 8qE-/	(<8qeee- 8qee-/	.	.
4d 4D\)	4ddd 4dd\)	.	.
(<8qd 8qD/	(<8qddd 8qdd/	.	.
4c 4C\)	4ccc 4cc\)	.	.
(<8qc 8qC/	(<8qccc 8qcc/	.	.
4B- 4BB-\)	4bb- 4b-\)	.	.
=2	=2	=2	=2
(<8qB- 8qBB-/	(<8qbb- 8qb-/	.	.
4A- 4AA-/)	4aa- 4a-\)	.	.
(<8qA- 8qAA-/	(<8qaa- 8qa-/	.	.
4G 4GG/)	4gg 4g\)	.	.
(<8qG 8qGG/	(<8qgg 8qg/	.	.
4F 4FF/)	4ff 4f\)	.	.
(<8qF 8qFF/	(<8qff 8qf/	.	.
4E- 4EE-/)	4ee- 4e-/)	.	.
=3	=3	=3	=3
8AA- 8AAA-/	8ccc: 8aa-: 8ee-: 8cc:\	.	.
8r	8r	.	.
4r	4r	.	.
2r	2r	.	.
=4	=4	=4	=4
1BB- 1BBB-;	1bb- 1ff 1dd 1a-;	.	fz
=5!|:	=5!|:	=5!|:	=5!|:
*>B	*>B	*	*>B
*ped	*	*	*
!	!LO:TUP:a:problem=klamra łukowa	!	!
4E- 4EE-/	12r	.	p <
.	12bb-L 12b-\	.	.
.	12eee-J 12ee-\	.	.
*	*8va	*	*
!	!LO:TUP:a:problem=klamra łukowa	!	!
4e- 4B- 4G\	12gggL 12gg\	.	.
.	12bbb- 12bb-\	.	.
*Xped	*	*	*
.	12eeee-J 12eee-\	.	[
4g 4e- 4B-\	(4.gggg (4.ggg\	.	>
4g 4e- 4B-\	.	.	.
.	8ffff 8fff\))	.	]
!!LO:LB:g=original
=6	=6	=6	=6
*ped	*	*	*
4A- 4AA-\	(8.ffffL 8.fff\	.	>
.	16eeee-Jk 16eee-\)	.	.
!	!LO:TUP:a:problem=klamra łukowa	!	!
4f 4c 4A-\	12eeee-L 12eee-\	.	.
.	12dddd 12ddd\	.	.
*Xped	*	*	*
.	12ccccJ 12ccc\	.	]
4f 4c 4A-\	4cccc 4ccc\	.	.
*	*X8va	*	*
4f 4c 4A-\	4r	.	.
=7	=7	=7	=7
*ped	*	*	*
!	!LO:TUP:a:problem=klamra łukowa	!	!
4B- 4BB-\	12r	.	.
.	12ddL 12d\	.	<
.	12ffJ 12f\	.	.
!	!LO:TUP:a:problem=klamra łukowa	!	!
4d 4B- 4A- 4F\	12bb-L 12b-\	.	.
.	12ddd 12dd\	.	.
*Xped	*	*	*
.	12fffJ 12ff\	.	[
*	*8va	*	*
4d 4B- 4A- 4F\	(4.dddd (4.ddd\	.	>
4d 4B- 4A- 4F\	.	.	.
.	8cccc 8ccc\))	.	]
=8	=8	=8	=8
*ped	*	*	*
4E- 4EE-/	(8.ccccL 8.ccc\	.	>
.	16bbb-Jk 16bb-\)	.	.
*clefG2	*	*	*
!	!LO:TUP:a:problem=klamra łukowa	!	!
4g 4e- 4B-/	12bbb-L 12bb-\	.	.
.	12aaa- 12aa-\	.	.
*Xped	*	*	*
.	12gggJ 12gg\	.	.
4g 4e- 4B-/	4ggg 4gg\	.	]
*	*X8va	*	*
4g 4e- 4B-/	4r	.	.
*clefF4	*	*	*
=9	=9	=9	=9
*ped	*	*	*
!	!LO:TUP:a:problem=klamra łukowa	!	!
4E- 4EE-/	12r	.	.
.	12bb-L 12b-\	.	<
.	12eee-J 12ee-\	.	.
*clefG2	*	*	*
*	*8va	*	*
!	!LO:TUP:a:problem=klamra łukowa	!	!
4g 4e- 4B-/	12gggL 12gg\	.	.
.	12bbb- 12bb-\	.	.
*Xped	*	*	*
.	12eeee-J 12eee-\	.	[
4g 4e- 4B-/	(4.gggg (4.ggg\	.	>
4g 4e- 4B-/	.	.	.
.	8ffff 8fff\))	.	]
*clefF4	*	*	*
=10	=10	=10	=10
*ped	*	*	*
4A- 4AA-\	(8.ffffL 8.fff\	.	>
.	16eeee-Jk 16eee-\)	.	.
!	!LO:TUP:a:problem=klamra łukowa	!	!
4f 4c 4A-\	12eeee-L 12eee-\	.	.
.	12dddd 12ddd\	.	.
*Xped	*	*	*
.	12ccccJ 12ccc\	.	]
4f 4c 4A-\	4cccc 4ccc\	.	.
*	*X8va	*	*
4f 4c 4A-\	4r	.	.
!!LO:LB:g=original
=11	=11	=11	=11
*ped	*	*	*
!	!LO:TUP:a:problem=klamra łukowa	!	!
4B- 4BB-\	12r	.	.
.	12ddL 12d\	.	.
.	12ffJ 12f\	.	.
!	!LO:TUP:a:problem=klamra łukowa	!	!
4f 4B-\	12aa-L 12a-\	.	.
.	12ddd 12dd\	.	.
*Xped	*	*	*
.	12fffJ 12ff\	.	.
*ped	*	*	*
!	!LO:TUP:a:problem=klamra łukowa	!	!
4E- 4EE-/	12r	.	.
.	12ggL 12g\	.	.
.	12bb-J 12b-\	.	.
*	*8va	*	*
!	!LO:TUP:a:problem=klamra łukowa	!	!
4g 4e- 4B-\	12eee-L 12ee-\	.	.
.	12ggg 12gg\	.	.
*Xped	*	*	*
.	12bbb-J 12bb-\	.	.
*	*X8va	*	*
=12	=12	=12	=12
4BB- 4BBB-/	2bb-TT\	.	.
4a- 4f 4d 4B-\	.	.	.
.	(<32qqaan/LLL	.	.
.	32qqbb-/	.	.
.	32qqggg/	.	.
.	32qqfff/JJJ	.	.
4g: 4B-: 4E-:\	4eee-\)	.	.
4r	4r	.	.
=13:|!|:	=13:|!|:	=13:|!|:	=13:|!|:
*>C	*>C	*	*>C
*ped	*	*	*
4E- 4EE-/	16r	.	.
.	(16b-\LL	.	<
.	16g\	.	.
.	16b-\JJ	.	.
*	*8va	*	*
!	!LO:TUP:a:problem=klamra łukowa	!	!
4g 4e- 4B-\	24eee-\LL	.	.
.	24ggg\	.	.
.	24bbb-\JJ	.	.
.	32eee-\LLL	.	.
.	32ggg\	.	.
.	32bbb-\	.	.
*Xped	*	*	*
.	32eeee-\JJJ)	.	[
4g 4e- 4B-\	(4.gggg\	.	>
4g 4e- 4B-\	.	.	.
.	8ffff\)	.	]
=14	=14	=14	=14
*ped	*	*	*
4A- 4AA-\	2eeee-TT\	.	>
*Xped	*	*	*
4f 4c 4A-\	.	.	.
.	(<8qdddd/	.	]
4f 4c 4A-\	4cccc\)	.	.
*	*X8va	*	*
4f 4c 4A-\	4r	.	.
!!LO:LB:g=original
=15	=15	=15	=15
*ped	*	*	*
4BB- 4BBB-/	16r	.	.
*	*	*below	*
.	(16f/LL	2	<
.	16d/	.	.
.	16f/JJ	.	.
!	!LO:TUP:a	!	!
4d 4B- 4A- 4F\	40a-\LLL	.	.
.	40b-\	.	.
*	*	*Xbelow	*
.	40dd\	1	.
.	40ff\	.	.
.	40aa-\	.	.
.	40bb-\	.	.
*	*8va	*	*
.	40ddd\	1	.
.	40fff\	.	.
.	40aaa-\	.	.
*Xped	*	*	*
.	40bbb-\JJJ)	.	.
4d 4B- 4A- 4F\	(4.dddd\	.	[
.	.	.	>
4d 4B- 4A- 4F\	.	.	.
.	8cccc\)	.	]
=16	=16	=16	=16
*ped	*	*	*
4E- 4EE-/	2bbb-TT\	.	>
4g 4e- 4B-\	.	.	.
*Xped	*	*	*
.	.	.	.
.	(<8qaaa-/	.	]
4g 4e- 4B-\	4ggg\)	.	.
*	*X8va	*	*
4g 4e- 4B-\	4r	.	.
=17	=17	=17	=17
*ped	*	*	*
4E- 4EE-/	16r	.	<
.	(16b-/LL	.	.
.	16g/	.	.
.	16b-/JJ	.	.
!	!LO:TUP:a:problem=klamra łukowa	!	!
4g 4e- 4B-\	24ee-\LL	.	.
.	24gg\	.	.
.	24bb-\JJ	.	.
*	*8va	*	*
.	32eee-\LLL	.	.
.	32ggg\	.	.
.	32bbb-\	.	.
*Xped	*	*	*
.	32eeee-\JJJ)	.	[
4g 4e- 4B-\	(4.gggg\	.	>
4g 4e- 4B-\	.	.	.
.	8ffff\)	.	]
=18	=18	=18	=18
*ped	*	*	*
4A- 4AA-\	2eeee-TT\	.	>
4f 4c 4A-\	.	.	.
*Xped	*	*	*
.	.	.	.
.	(<8qdddd/	.	]
4f 4c 4A-\	4cccc\)	.	.
*	*X8va	*	*
4f 4c 4A-\	4r	.	.
!!LO:LB:g=original
=19	=19	=19	=19
*ped	*	*	*
4BB- 4BBB-/	16r	.	<
.	(16d/LL	.	.
.	16f/	.	.
.	16a-/JJ	.	.
!	!LO:TUP:a	!	!
4d 4B- 4A- 4F\	40b-\LLL	.	.
.	40dd\	.	.
.	40ff\	.	.
.	40aa-\	.	.
.	40bb-\	.	.
.	40ddd\	.	.
*	*8va	*	*
.	40fff\	.	.
.	40aaa-\	.	.
*Xped	*	*	*
.	40bbb-\	.	.
.	40dddd\JJJ)	.	[
*ped	*X8va	*	*
4E- 4EE-/	16r	.	.
.	(16g\LL	.	<
.	16b-\	.	.
.	16ee-\JJ	.	.
*	*Xtuplet	*	*
*	*rscale:1/2	*	*
4g 4e- 4B-\	28gg\LL	.	.
.	28bb-\	.	.
.	28eee-\	.	.
.	28ggg\	.	.
*	*8va	*	*
.	28bbb-\	.	.
.	28eeee-\	.	.
.	28gggg\JJ)	.	[
*Xped	*X8va	*	*
*	*rscale:1	*	*
=20	=20	=20	=20
!LO:TX:t=1.	!	!	!
*>C1	*>C1	*	*>C1
*ped	*	*	*
4BB- 4BBB-/	16r	.	.
.	(16d/LL	.	.
.	16f/	.	.
.	16a-/JJ	.	.
*	*tuplet	*	*
!	!LO:TUP:a	!	!
4d 4B- 4A- 4F\	40b-\LLL	.	.
.	40dd\	.	.
.	40ff\	.	.
.	40aa-\	.	.
.	40bb-\	.	.
.	40ddd\	.	.
*	*8va	*	*
.	40fff\	.	.
.	40aaa-\	.	.
.	40bbb-\	.	.
*Xped	*	*	*
.	40dddd\JJJ	.	.
.	(<8qeee-/	.	.
2g: 2B-: 2E-;:\	2eeee-\;))	.	.
*	*X8va	*	*
!!LO:PB:g=original
=21:|!	=21:|!	=21:|!	=21:|!
!LO:TX:t=2.	!	!	!
*>C2	*>C2	*	*>C2
*ped	*	*	*
4BB- 4BBB-/	8r	.	p
!	!LO:TX:b:i:t=marcato	!	!
.	(8b-sSSs\L	.	.
4d 4B- 4A- 4F\	8.gg\	.	>
*Xped	*	*	*
.	16ff\Jk)	.	]
4e- 4B- 4G 4E-\	4ee-\	.	.
4r	4r	.	.
=22!|:	=22!|:	=22!|:	=22!|:
*>D	*>D	*	*>D
!LO:MO:null:mod=*ped	!LO:MO:mod=*null:null	!	!
*	*ped	*	*
4E- 4EE-/	8r	.	p
*	*clefF4	*	*
.	(8B-\L	.	.
*clefG2	*	*	*
4gg 4ee- 4b-\	8G\	.	.
!LO:MO:null:mod=*Xped	!LO:MO:mod=*null:null	!	!
*	*Xped	*	*
.	8B-\J)	.	.
4gg 4ee- 4b-\	(4.g\	.	>
4gg 4ee- 4b-\	.	.	.
.	8f\)	.	]
*clefF4	*	*	*
=23	=23	=23	=23
!LO:MO:null:mod=*ped	!LO:MO:mod=*null:null	!	!
*	*ped	*	*
4AA- 4AAA-/	(8.f\L	.	>
.	16e-\Jk)	.	]
*clefG2	*	*	*
!	!LO:TUP:a:problem=klamra łukowa	!	!
4ff 4cc 4a-\	12e-\L	.	.
.	12d\	.	.
!LO:MO:null:mod=*Xped	!LO:MO:mod=*null:null	!	!
*	*Xped	*	*
.	12c\J	.	.
4ff 4cc 4a-\	2c\	.	.
4ff 4cc 4a-\	.	.	.
*clefF4	*	*	*
=24	=24	=24	=24
!LO:MO:null:mod=*ped	!LO:MO:mod=*null:null	!	!
*	*ped	*	*
4BB- 4BBB-/	8r	.	.
.	(8D\L	.	.
*clefG2	*	*	*
4dd 4b- 4g 4f/	8F\	.	.
!LO:MO:null:mod=*Xped	!LO:MO:mod=*null:null	!	!
*	*Xped	*	*
.	8A-\J)	.	.
4dd 4b- 4a- 4f/	(4.d\	.	>
4dd 4b- 4a- 4f/	.	.	.
.	8c\)	.	]
*clefF4	*	*	*
!!LO:LB:g=original
=25	=25	=25	=25
!LO:MO:null:mod=*ped	!LO:MO:mod=*null:null	!	!
*	*ped	*	*
4E- 4EE-/	(8.c\L	.	>
.	16B-\Jk)	.	]
*clefG2	*	*	*
!	!LO:TUP:a:problem=klamra łukowa	!	!
4gg 4ee- 4b-\	12B-\L	.	.
.	12A-\	.	.
!LO:MO:null:mod=*Xped	!LO:MO:mod=*null:null	!	!
*	*Xped	*	*
.	12G\J	.	.
4gg 4ee- 4b-\	2G\	.	.
4gg 4ee- 4b-\	.	.	.
*clefF4	*	*	*
=26	=26	=26	=26
!LO:MO:null:mod=*ped	!LO:MO:mod=*null:null	!	!
*	*ped	*	*
4E- 4EE-/	8r	.	.
.	(8B-\L	.	.
*clefG2	*	*	*
4gg 4ee- 4b-\	8G\	.	.
!LO:MO:null:mod=*Xped	!LO:MO:mod=*null:null	!	!
*	*Xped	*	*
.	8B-\J)	.	.
4gg 4ee- 4b-\	(4.g\	.	>
4gg 4ee- 4b-\	.	.	.
.	8f\)	.	]
*clefF4	*	*	*
=27	=27	=27	=27
!LO:MO:null:mod=*ped	!LO:MO:mod=*null:null	!	!
*	*ped	*	*
4AA- 4AAA-/	(8.f\L	.	.
.	16e-\Jk)	.	.
*clefG2	*	*	*
!	!LO:TUP:a:problem=klamra łukowa	!	!
4ff 4cc 4a-\	12e-\L	.	.
.	12d\	.	.
!LO:MO:null:mod=*Xped	!LO:MO:mod=*null:null	!	!
*	*Xped	*	*
.	12c\J	.	.
4ff 4cc 4a-\	2c\	.	.
4ff 4cc 4a-\	.	.	.
*clefF4	*	*	*
=28	=28	=28	=28
!LO:MO:null:mod=*ped	!LO:MO:mod=*null:null	!	!
*	*ped	*	*
4BB- 4BBB-/	8r	.	.
.	(8D\L	.	.
*clefG2	*	*	*
4dd 4b- 4a- 4f/	8F\	.	.
.	8B-\J)	.	.
*clefF4	*	*	*
4EE-/	8r	.	.
.	(8G\L	.	.
*clefG2	*Xped	*	*
4gg 4ee- 4b-\	8B-\	.	.
.	8e-\J)	.	.
*clefF4	*	*	*
=29	=29	=29	=29
2BB- 2BBB-/	2B-TT\	.	.
.	(<32qqAn/LLL	.	.
.	32qqB-/	.	.
.	32qqg/	.	.
.	32qqf/JJJ	.	.
4EE- 4EEE-;/	4e- 4B- 4G;\)	.	.
4r	4r	.	.
*	*clefG2	*	*
!!LO:LB:g=original
=30:|!|:	=30:|!|:	=30:|!|:	=30:|!|:
*>E	*>E	*	*>E
!LO:MO:null:mod=*ped	!LO:MO:mod=*null:null	!	!
*	*ped	*	*
4E- 4EE-/	4b-T\	.	.
4e- 4B- 4G\	16r	.	.
.	(32g\LLL	.	.
.	32b-\	.	.
.	32ee-\	.	.
.	32gg\	.	.
.	32bb-\	.	.
!LO:MO:null:mod=*Xped	!LO:MO:mod=*null:null	!	!
*	*Xped	*	*
.	32eee-\JJJ)	.	.
4e- 4B- 4G\	(4.ggg\	.	.
4e- 4B- 4G\	.	.	.
.	8fff\)	.	.
=31	=31	=31	=31
!LO:MO:null:mod=*ped	!LO:MO:mod=*null:null	!	!
*	*ped	*	*
4AA- 4AAA-/	2eee-TT\	.	.
4f 4c 4A-\	.	.	.
!LO:MO:null:mod=*Xped	!LO:MO:mod=*null:null	!	!
*	*Xped	*	*
.	.	.	.
4f 4c 4A-\	(4.ddd\	.	.
4f 4c 4A-\	.	.	.
.	8ccc\)	.	.
=32	=32	=32	=32
!LO:MO:null:mod=*ped	!LO:MO:mod=*null:null	!	!
*	*ped	*	*
4BB- 4BBB-/	4dt/	.	.
*	*Xtuplet	*	*
4d 4B- 4A- 4F\	18r	.	.
.	(36f\LLL	.	.
.	36a-\	.	.
.	36b-\	.	.
.	36dd\	.	.
.	36ff\	.	.
.	36aa-\	.	.
!LO:MO:null:mod=*Xped	!LO:MO:mod=*null:null	!	!
*	*Xped	*	*
.	36bb-\JJJ)	.	.
4d 4B- 4A- 4F\	(4.ddd\	.	.
4d 4B- 4A- 4F\	.	.	.
.	8ccc\)	.	.
=33	=33	=33	=33
!LO:MO:null:mod=*ped	!LO:MO:mod=*null:null	!	!
*	*ped	*	*
4E- 4EE-/	2bb-T\	.	.
4g 4e- 4B-\	.	.	.
!LO:MO:null:mod=*Xped	!LO:MO:mod=*null:null	!	!
*	*Xped	*	*
.	.	.	.
.	(<16qqbb-/LL	.	.
.	16qqccc/	.	.
.	16qqddd/JJ	.	.
4g 4e- 4B-\	(4.ccc^\)	.	.
4g 4e- 4B-\	.	.	.
.	8bb-X\)	.	.
=34	=34	=34	=34
!LO:MO:null:mod=*ped	!LO:MO:mod=*null:null	!	!
*	*ped	*	*
4E- 4EE-/	4b-T\	.	.
4e- 4B- 4G\	16r	.	.
.	(32g\LLL	.	.
.	32b-\	.	.
.	32ee-\	.	.
.	32gg\	.	.
.	32bb-\	.	.
!LO:MO:null:mod=*Xped	!LO:MO:mod=*null:null	!	!
*	*Xped	*	*
.	32eee-\JJJ)	.	.
4g 4e- 4B-\	(4.ggg\	.	.
4g 4e- 4B-\	.	.	.
.	8fff\)	.	.
!!LO:LB:g=original
=35	=35	=35	=35
!LO:MO:null:mod=*ped	!LO:MO:mod=*null:null	!	!
*	*ped	*	*
4AA- 4AAA-/	2eee-TT\	.	.
4f 4c 4A-\	.	.	.
!LO:MO:null:mod=*Xped	!LO:MO:mod=*null:null	!	!
*	*Xped	*	*
4f 4c 4A-\	(4.ddd\	.	.
4f 4c 4A-\	.	.	.
.	8ccc\)	.	.
=36	=36	=36	=36
!LO:MO:null:mod=*ped	!LO:MO:mod=*null:null	!	!
*	*ped	*	*
4BB- 4BBB-/	16r	.	.
.	(16d/LL	.	.
.	16f/	.	.
.	16a-/JJ	.	.
*	*tuplet	*	*
!	!LO:TUP:a	!	!
4d 4B- 4A- 4F\	24b-\LL	.	.
.	24dd\	.	.
.	24ff\	.	.
.	24aa-\	.	.
.	24bb-\	.	.
!LO:MO:null:mod=*Xped	!LO:MO:mod=*null:null	!	!
*	*Xped	*	*
.	24ddd\JJ)	.	.
!LO:MO:null:mod=*ped	!LO:MO:mod=*null:null	!	!
*	*ped	*	*
4E- 4EE-/	16r	.	.
.	(16g\LL	.	.
.	16b-\	.	.
.	16ee-\JJ	.	.
4g 4e- 4B-\	16gg\LL	.	.
.	16bb-\	.	.
.	16eee-\	.	.
!LO:MO:null:mod=*Xped	!LO:MO:mod=*null:null	!	!
*	*Xped	*	*
.	16ggg\JJ)	.	.
=37	=37	=37	=37
!LO:TX:t=1.	!	!	!
*>E1	*>E1	*	*>E1
!LO:MO:null:mod=*ped	!LO:MO:mod=*null:null	!	!
*	*ped	*	*
4BB- 4BBB-/	16r	.	.
.	(16d/LL	.	.
.	16f/	.	.
.	16a-/JJ	.	.
!	!LO:TUP:a	!	!
4d 4B- 4A- 4F\	40b-\LLL	.	.
.	40dd\	.	.
.	40ff\	.	.
.	40aa-\	.	.
.	40bb-\	.	.
.	40ddd\	.	.
*	*8va	*	*
.	40fff\	.	.
.	40aaa-\	.	.
.	40bbb-\	.	.
!LO:MO:null:mod=*Xped	!LO:MO:mod=*null:null	!	!
*	*Xped	*	*
.	40dddd\JJJ	.	.
.	(<8qeee-/	.	.
2g: 2B-: 2E-;:\	2eeee-;\))	.	.
*	*X8va	*	*
=38:|!	=38:|!	=38:|!	=38:|!
!LO:TX:t=2.	!	!	!
*>E2	*>E2	*	*>E2
!LO:MO:null:mod=*ped	!LO:MO:mod=*null:null	!	!
*	*ped	*	*
4BB- 4BBB-/	8r	.	.
.	(8b-sSSs\L	.	.
4d 4B- 4A- 4F\	8.gg\	.	.
!LO:MO:null:mod=*Xped	!LO:MO:mod=*null:null	!	!
*	*Xped	*	*
.	16ff\Jk)	.	.
4e- 4B- 4G 4E-\	4ee-\	.	.
4r	4r	.	.
!!LO:LB:g=original
=39||	=39||	=39||	=39||
*>F	*>F	*	*>F
!LO:MO:null:mod=*ped	!LO:MO:mod=*null:null	!	!
*	*ped	*	*
!	!LO:TUP:a:problem=klamra łukowa	!	!
4E- 4EE-/	12r	.	.
.	12bb-L 12b-\	.	.
.	12eee-J 12ee-\	.	.
*	*Xtuplet	*	*
4e- 4B- 4G\	12gggL 12gg'\	.	.
.	12ggg 12gg'\	.	.
.	12gggJ 12gg'\	.	.
4e- 4B- 4G\	12gggL 12gg'\	.	.
.	12ggg 12gg'\	.	.
.	12gggJ 12gg'\	.	.
4e- 4B- 4G\	12gggL 12gg'\	.	.
.	12ggg 12gg'\	.	.
!LO:MO:null:mod=*Xped	!LO:MO:mod=*null:null	!	!
*	*Xped	*	*
.	12gggJ 12gg'\	.	.
=40	=40	=40	=40
!LO:MO:null:mod=*ped	!LO:MO:mod=*null:null	!	!
*	*ped	*	*
*	*tuplet	*	*
!	!LO:TUP:a:problem=klamra łukowa	!	!
4AA- 4AAA-/	12aaa-L 12aa-\	.	.
.	12ggg 12gg\	.	.
.	12fffJ 12ff\	.	.
*	*Xtuplet	*	*
4f 4c 4A-\	12cccL 12cc'\	.	.
.	12ccc 12cc'\	.	.
.	12cccJ 12cc'\	.	.
4f 4c 4A-\	12cccL 12cc'\	.	.
.	12ccc 12cc'\	.	.
.	12cccJ 12cc'\	.	.
4f 4c 4A-\	12cccL 12cc'\	.	.
.	12ccc 12cc'\	.	.
!LO:MO:null:mod=*Xped	!LO:MO:mod=*null:null	!	!
*	*Xped	*	*
.	12cccJ 12cc'\	.	.
=41	=41	=41	=41
!LO:MO:null:mod=*ped	!LO:MO:mod=*null:null	!	!
*	*ped	*	*
*	*tuplet	*	*
!	!LO:TUP:a:problem=klamra łukowa	!	!
4BB- 4BBB-/	12r	.	.
.	12ffL 12f\	.	.
.	12ggJ 12g\	.	.
*	*Xtuplet	*	*
4d 4B- 4A- 4F\	(12aa-L 12a-\	.	.
.	12ddd 12dd\)	.	.
.	12dddJ 12dd'\	.	.
4d 4B- 4A- 4F\	12dddL 12dd'\	.	.
.	12ddd 12dd'\	.	.
.	12dddJ 12dd'\	.	.
4d 4B- 4A- 4F\	12dddL 12dd'\	.	.
.	12ddd 12dd'\	.	.
!LO:MO:null:mod=*Xped	!LO:MO:mod=*null:null	!	!
*	*Xped	*	*
.	12dddJ 12dd'\	.	.
=42	=42	=42	=42
!LO:MO:null:mod=*ped	!LO:MO:mod=*null:null	!	!
*	*ped	*	*
*	*tuplet	*	*
!	!LO:TUP:a:problem=klamra łukowa	!	!
4E- 4EE-/	12dddL 12dd'\	.	.
.	12ccc 12cc'\	.	.
.	12bb-J 12b-'\	.	.
*	*Xtuplet	*	*
4g 4e- 4B-\	12ggL 12g'\	.	.
.	12gg 12g'\	.	.
.	12ggJ 12g'\	.	.
4g 4e- 4B-\	12ggL 12g'\	.	.
.	12gg 12g'\	.	.
.	12ggJ 12g'\	.	.
4g 4e- 4B-\	12ggL 12g'\	.	.
.	12gg 12g'\	.	.
!LO:MO:null:mod=*Xped	!LO:MO:mod=*null:null	!	!
*	*Xped	*	*
.	12ggJ 12g'\	.	.
!!LO:LB:g=original
=43	=43	=43	=43
!LO:MO:null:mod=*ped	!LO:MO:mod=*null:null	!	!
*	*ped	*	*
*	*tuplet	*	*
!	!LO:TUP:a:problem=klamra łukowa	!	!
4E- 4EE-/	12r	.	.
.	12bb-L 12b-\	.	.
.	12eee-J 12ee-\	.	.
*	*Xtuplet	*	*
4e- 4B- 4G\	12gggL 12gg'\	.	.
.	12ggg 12gg'\	.	.
.	12gggJ 12gg'\	.	.
4e- 4B- 4G\	12gggL 12gg'\	.	.
.	12ggg 12gg'\	.	.
.	12gggJ 12gg'\	.	.
4e- 4B- 4G\	12gggL 12gg'\	.	.
.	12ggg 12gg'\	.	.
!LO:MO:null:mod=*Xped	!LO:MO:mod=*null:null	!	!
*	*Xped	*	*
.	12gggJ 12gg'\	.	.
=44	=44	=44	=44
!LO:MO:null:mod=*ped	!LO:MO:mod=*null:null	!	!
*	*ped	*	*
*	*8va	*	*
4A- 4AA-\	(12gggL 12gg\	.	.
.	12fff 12ff\)	.	.
.	12gggJ 12gg'\	.	.
4f 4c 4A-\	12aaa-L 12aa-'\	.	.
.	12dddd 12ddd'\	.	.
.	12ddddJ 12ddd'\	.	.
!	!LO:TX:b:Bi:t=cres-cen-do:problem=dynamics with extention lines	!	!LO:HP:t=cres-cen-do
4f 4c 4A-\	12ddddL 12ddd'\	.	<
.	12dddd 12ddd'\	.	.
.	12ddddJ 12ddd'\	.	.
4f 4c 4A-\	12ddddL 12ddd'\	.	.
.	12dddd 12ddd'\	.	.
!LO:MO:null:mod=*Xped	!LO:MO:mod=*null:null	!	!
*	*Xped	*	*
.	12ddddJ 12ddd'\	.	.
=45	=45	=45	=45
!LO:MO:null:mod=*ped	!LO:MO:mod=*null:null	!	!
*	*ped	*	*
4BB- 4BBB-/	(12ddddL 12ddd\	.	.
.	12cccc 12ccc\)	.	.
.	12bbb-J 12bb-'\	.	[
4d 4B- 4A- 4F\	12fffL 12ff'\	.	.
.	12fff 12ff'\	.	.
!	!LO:TX:a:Bi:t=ritard.	!	!
.	12fffJ 12ff'\	.	.
4d 4B- 4A- 4F\	12fffL 12ff'\	.	.
.	12fff 12ff'\	.	.
.	12fffJ 12ff'\	.	.
4d 4B- 4A- 4F\	12fffL 12ff'\	.	.
.	12ggg 12gg'\	.	.
!LO:MO:null:mod=*Xped	!LO:MO:mod=*null:null	!	!
*	*Xped	*	*
.	12fffJ 12ff'\	.	.
=46	=46	=46	=46
!LO:MO:null:mod=*ped	!LO:MO:mod=*null:null	!	!
*	*ped	*	*
1g: 1B-: 1E-;:	1eee-: 1ee-:	.	.
!LO:MO:null:mod=*Xped	!LO:MO:mod=*null:null	!	!
*	*Xped	*	*
.	.	.	.
*	*X8va	*	*
==	==	==	==
*-	*-	*-	*-
!!!system-decoration: {(*)}
!!!RDF**kern: > = above
!!!RDF**kern: < = below
!!!filter-modern: | autostem -r | shed -e "s/TUP/tup/L; s/^(X)?tuplet/$1TUPLET/I" | shed -k -e “s/([^a-gA-Gn#X-])[<>]/$1/g”  | modori -m
!!!ENC: Andrzej Kubiczek
!!!END: 2022-02-06
!!!ENC: Andrzej Kubiczek
!!!END: 2022-02-12
!!!ENC-modern: Leszek Kubiak
!!!END-modern: 2022-07-28
